X:50
T:Blue Bonnets Over the Border
R:Reel
B:The Athole Collection
M:C|
L:1/8
K:A
c|A>Bcd efec|~B>cde f/f/f f2|ABcd ecaf|ecdB A/A/A A:|
|:d|cABc BGF<E|cABc F/F/F F>d|cABc BGFE|ecdB A/A/A A:|
f/g/|aecA aecA|BABc F/F/F F>g|aecA aecA|dBec A/A/A A>g|
aecA aecA|BABc F/F/F F>g|aeca ef/g/ a>f|ecdB A/A/A A||

